X: 3675
T: Billy Brocker's
R: reel
M: 4/4
K: Dmajor
|:AF F2 AFDB|ADFA G3B|AF F2 ABdf|efge fedB|
AF F2 AFDB|ADFA G3B|AF F2 ABdf|1 efge fedB:|2 efge fdef||
d3e faaf|eA3 eA3|dcde faaf|gfeg fedB|
d3e faaf|eA3 eA3|dfaf g2fg|afeg fedB||

